X: 50
M: C|
L: 1/8
K: G
dc |\
ecdB cABG | F2AB A2dc |
ecdB cABG | D2G2 G2 :|
|: dc |\
^cafa cafa | ^cfag fed=c |

